src/client/web-contents/img/common/badge/badge_family.svg

<svg height="32" viewBox="0 0 80 32" width="80" xmlns="http://www.w3.org/2000/svg"><g fill="none" fill-rule="evenodd"><path d="m0 0h56v32h-56z" fill="none"/><rect fill="#f76252" height="32" rx="4" width="80"/><path d="m24.08 15.68h-2.64v9.16h-2.06v-17.82h2.06v6.96h2.64zm-7.32-6.78c-.14 5.52-2.84 9.78-7.98 12.6l-1.28-1.56c4.1-1.88 6.72-5.62 7.06-9.36h-6.02v-1.68zm22.56 3.82-.9 1.6c-2.68-.32-5.5-1.82-6.46-3.5-.82 1.74-3.5 3.2-6.44 3.52l-.88-1.6c2.88-.2 5.68-1.5 6.18-3.54h-5.42v-1.66h13.12v1.66h-5.38c.58 2.04 3.74 3.36 6.18 3.52zm.68 4.66h-16.1v-1.66h6.98v-2.38h2.04v2.38h7.08zm-14.22 1.48h12.14v6.04h-2.04v-4.38h-10.1zm24.62-7.78h-10.34v-1.58h10.34zm-.98 3.3c0 1.74-1.78 2.74-4.18 2.74-2.36 0-4.18-1-4.18-2.74 0-1.66 1.78-2.7 4.18-2.7 2.38 0 4.18 1.04 4.18 2.7zm-1.98 0c0-.76-1.04-1.22-2.2-1.22s-2.22.46-2.22 1.22c0 .84 1.08 1.26 2.22 1.26 1.16 0 2.2-.42 2.2-1.26zm-4.8-5.8v-1.58h5.22v1.58zm14.02 4.32h-2.62v4.18h-2.06v-10.06h2.06v4.16h2.62zm-2.02 11.88h-12.06v-4.1h9.4v-1.1h-9.48v-1.58h11.54v4.14h-9.42v1.08h10.02zm16.52-4.84h-2.04v-12.92h2.04zm.42 4.38h-12.2v-5.6h2.04v3.96h10.16zm-5.42-11.62c0 2.54-1.84 4.36-4.56 4.36s-4.6-1.82-4.6-4.34c0-2.54 1.86-4.38 4.6-4.38 2.72 0 4.56 1.82 4.56 4.36zm-2.04 0c0-1.56-.96-2.66-2.52-2.66-1.52 0-2.54 1.14-2.54 2.66 0 1.46 1.02 2.62 2.54 2.62 1.56 0 2.52-1.16 2.52-2.62z" fill="#fff"/></g></svg>

<?xml version="1.0" encoding="UTF-8" standalone="no"?>
<svg width="80px" height="32px" viewBox="0 0 80 32" version="1.1" xmlns="http://www.w3.org/2000/svg" xmlns:xlink="http://www.w3.org/1999/xlink">
    <!-- Generator: Sketch 50.2 (55047) - http://www.bohemiancoding.com/sketch -->
    <title>graphic_badge_family</title>
    <desc>Created with Sketch.</desc>
    <defs></defs>
    <g id="Icon_Badge_Graphic" stroke="none" stroke-width="1" fill="none" fill-rule="evenodd">
        <g id="##Element/Badge/Family">
            <rect id="Icon_Area" fill-opacity="0" fill="#FFFFFF" x="0" y="0" width="56" height="32"></rect>
            <rect id="Rectangle-2" fill="#F76252" x="0" y="0" width="80" height="32" rx="4"></rect>
            <path d="M24.08,15.68 L21.44,15.68 L21.44,24.84 L19.38,24.84 L19.38,7.02 L21.44,7.02 L21.44,13.98 L24.08,13.98 L24.08,15.68 Z M16.76,8.9 C16.62,14.42 13.92,18.68 8.78,21.5 L7.5,19.94 C11.6,18.06 14.22,14.32 14.56,10.58 L8.54,10.58 L8.54,8.9 L16.76,8.9 Z M39.32,12.72 L38.42,14.32 C35.74,14 32.92,12.5 31.96,10.82 C31.14,12.56 28.46,14.02 25.52,14.34 L24.64,12.74 C27.52,12.54 30.32,11.24 30.82,9.2 L25.4,9.2 L25.4,7.54 L38.52,7.54 L38.52,9.2 L33.14,9.2 C33.72,11.24 36.88,12.56 39.32,12.72 Z M40,17.38 L23.9,17.38 L23.9,15.72 L30.88,15.72 L30.88,13.34 L32.92,13.34 L32.92,15.72 L40,15.72 L40,17.38 Z M25.78,18.86 L37.92,18.86 L37.92,24.9 L35.88,24.9 L35.88,20.52 L25.78,20.52 L25.78,18.86 Z M50.4,11.08 L40.06,11.08 L40.06,9.5 L50.4,9.5 L50.4,11.08 Z M49.42,14.38 C49.42,16.12 47.64,17.12 45.24,17.12 C42.88,17.12 41.06,16.12 41.06,14.38 C41.06,12.72 42.84,11.68 45.24,11.68 C47.62,11.68 49.42,12.72 49.42,14.38 Z M47.44,14.38 C47.44,13.62 46.4,13.16 45.24,13.16 C44.08,13.16 43.02,13.62 43.02,14.38 C43.02,15.22 44.1,15.64 45.24,15.64 C46.4,15.64 47.44,15.22 47.44,14.38 Z M42.64,8.58 L42.64,7 L47.86,7 L47.86,8.58 L42.64,8.58 Z M56.66,12.9 L54.04,12.9 L54.04,17.08 L51.98,17.08 L51.98,7.02 L54.04,7.02 L54.04,11.18 L56.66,11.18 L56.66,12.9 Z M54.64,24.78 L42.58,24.78 L42.58,20.68 L51.98,20.68 L51.98,19.58 L42.5,19.58 L42.5,18 L54.04,18 L54.04,22.14 L44.62,22.14 L44.62,23.22 L54.64,23.22 L54.64,24.78 Z M71.16,19.94 L69.12,19.94 L69.12,7.02 L71.16,7.02 L71.16,19.94 Z M71.58,24.32 L59.38,24.32 L59.38,18.72 L61.42,18.72 L61.42,22.68 L71.58,22.68 L71.58,24.32 Z M66.16,12.7 C66.16,15.24 64.32,17.06 61.6,17.06 C58.88,17.06 57,15.24 57,12.72 C57,10.18 58.86,8.34 61.6,8.34 C64.32,8.34 66.16,10.16 66.16,12.7 Z M64.12,12.7 C64.12,11.14 63.16,10.04 61.6,10.04 C60.08,10.04 59.06,11.18 59.06,12.7 C59.06,14.16 60.08,15.32 61.6,15.32 C63.16,15.32 64.12,14.16 64.12,12.7 Z" id="가족할인" fill="#FFFFFF"></path>
        </g>
    </g>
</svg>
